X:1
T:Title
L:1/8
M:2/4
K:F
V:1 treble nm="Grand Piano"
V:1
 z2 z z/[Q:1/4=86] A/ | AB cA | G2 G>G | FG AB | A3 z/ D/ | DE FG | AB cA | GF EF | G4 | AB cA | %10
 G2 GG | FG AB | A3 z/ D/ | DE FG | A2 FA | AG EG | F3 z/ A/ | AB cA | G3- G/G/ | GA BG | %20
 A3- A/D/ | DE FG | A2 F>A | AG EG | F4 |] %25

